images/linkimg/claritydesign.svg

<svg height="200" viewBox="0 0 200 200" width="200" xmlns="http://www.w3.org/2000/svg" xmlns:xlink="http://www.w3.org/1999/xlink"><linearGradient id="a" x1="-3.631445%" x2="140.785933%" y1="102.419323%" y2="-47.103201%"><stop offset="0" stop-color="#3aa5f5"/><stop offset="1" stop-color="#bbf3ff"/></linearGradient><g fill="none" fill-rule="evenodd" transform="translate(45 29)"><path d="m8.4 114.8c4.8 0 7.2-3.2 7.6-6.2h-3.2c-.6 1.8-2.2 3.2-4.4 3.2-3 0-4.8-2.4-4.8-5.4v-1.6c0-3 2-5.4 4.8-5.4 2.2 0 3.8 1.2 4.2 3h3.4c-.4-3-3-6-7.6-6-5 0-8.4 3.6-8.4 8.6v1c0 5.2 3.4 8.8 8.4 8.8zm15.2-3.2v-14.6h-3.4v17.6h11.8v-3zm24.2 2.8h3.4l-7.2-17.6h-2.8l-7.2 17.6h3.4l1.6-4h7zm-7.6-7 2.4-5.8 2.4 5.8zm24 7h3.8l-3.6-7c1.8-.8 3.2-2.8 3.2-5.2 0-3.6-2.2-5.6-5.2-5.6h-8.4v17.6h3.4v-6.4h3.6zm-6.8-14.6h4c1.4 0 2.6 1 2.6 2.8 0 1.6-1.4 2.8-3 2.8h-3.8v-5.6zm13.8 14.6h3.4v-17.6h-3.4zm20.6-17.6h-14.4v3h5.4v14.6h3.4v-14.6h5.4v-3zm13.8 0-4.2 7.6-4.2-7.6h-3.8l6.4 11v6.8h3.4v-6.8l6.4-11zm-92.2 26h-7.4v17.6h7c4.4 0 7.8-3.4 7.8-9 .2-5.4-3-8.6-7.4-8.6zm-1.2 14.8h-2.8v-11.8h3.2c3.2 0 4.8 2.2 5 5.8 0 3.6-1.8 6-5.4 6zm16.4 0v-4.6h7.8v-3h-7.8v-4.2h8.6v-3h-12v17.6h12.2v-3h-8.8zm19.8 3.2c4.2 0 7-2.2 7-5.6s-2-4.2-6.8-5c-1.6-.2-3.6-.6-3.6-2 0-1.6 1.2-2.6 3.4-2.6 2 0 3.4 1.2 3.4 3h3.4c0-3.8-2.4-6-6.6-6s-6.8 2.2-6.8 5.8c0 2.8 2 4 5.6 4.6 1.8.4 4.8.6 4.8 2.4 0 1.6-1.4 2.6-3.6 2.6-2.4 0-4-1.2-4-3h-3.4c0 3.6 2.6 5.8 7.2 5.8zm11.6-.4h3.4v-17.6h-3.4zm15.8.4c5 0 7.6-3.6 7.6-7v-3h-7.6v3h4.2c0 2.8-2 4-4.2 4-3 0-4.8-2.4-4.8-5.4v-1.6c0-3.2 2-5.4 4.8-5.4 2.2 0 3.6 1.2 4 3h3.4c-.2-3-2.8-6-7.4-6-5 0-8.4 3.4-8.4 8.6v1c.2 5.2 3.4 8.8 8.4 8.8zm23-18v12l-7.6-12h-3.4v17.6h3.4v-11.8l7.6 11.8h3.4v-17.6z" fill="#000" fill-rule="nonzero"/><path d="m56 71h-15.4c-2.2 0-4-1.8-4-4s1.8-4 4-4h15.4c15.2 0 27.4-12.2 27.4-27.2s-12.4-27.2-27.4-27.2h-14.2c-10.8 0-19.6 8.6-19.6 19.4 0 10.6 8.8 19.4 19.6 19.4h14.2c6.4 0 11.6-5.2 11.6-11.6s-5.2-11.6-11.6-11.6h-12v11.6c0 2.2-1.8 4-4 4s-4-1.8-4-4v-15.6c0-2.2 1.8-4 4-4h16c11 0 19.8 8.8 19.8 19.6s-9 19.6-19.8 19.6h-14.2c-15.4 0-27.8-12.4-27.8-27.4 0-15.2 12.4-27.4 27.8-27.4h14.2c19.6 0 35.6 15.8 35.6 35.2s-16 35.2-35.6 35.2" fill="url(#a)" fill-rule="nonzero"/><path d="m40.2 41.8v-21.8h17s13.8 1.6 13.8 15.8-13.8 16-13.8 16-15 0-19.8 0c-7.4 0-20-10.6-20-22.4 0-20.4 16.2-24 26.8-24h16.4c12.2 0 27 10.6 27 30.4 0 23.6-22.2 31-26.8 31s-26.6 0-26.6 0"/><path d="m100.2 120.4v19l-10.6-17v18l-3.8-11.6-3.4 1s-1.6-5.8-6.8-5.8c-4.2 0-6.4 3-6.4 7.6s2.8 7.8 5.6 7.8 7.2.4 7.2-6.6h-9l-11.2-12.4v20l-8.2-12s.2-4.4-5-4.4-4.6 2.8-4.6 4.4c0 1.2 1.8 2.6 4.6 3.2s6 2 5.6 4.8-5.6 2.8-5.6 2.8-5.6 0-5.6-4.4c0-4.2-5.4-10.8-5.4-10.8l-10.6-.2.4 7.6h9.2l-9.2-.6-.6 7.8 11.6.2-20.6-18-10-.2v3.6s11.8-3.4 11.8 7.8c0 9.2-11.8 6.8-11.8 6.8l.2-20"/><path d="m94.4 95.6 6.4 10.8 1.2-10h5.2l-6.2 10.8.2 7.4-9.6-16.6-14.2-.2 7.2-1.2v18.8l-11.6-21v20.2l-6.8-.4-4.4-7.8s3.8-.2 3.8-4c0-4.6-3.8-4.4-3.8-4.4h-6.2v16.2l-2.8-8.2h15.4v-15.4l-25.4 5.6-5.2 12.4 9.8.2 2 5.4h-13.4l3.6-7h7.6l-6-12.8-19.4 1v17h10.2l-.6 5.4-13.8-3.2v-12.2h-3.4s-1.4-4.8-6-4.8c-4.6 0-6.6 4.4-6.6 7.6s1.8 7.6 6.6 7.6 6-2.8 6-4.4"/></g></svg>

<?xml version="1.0" encoding="UTF-8"?>
<svg width="200px" height="200px" viewBox="0 0 200 200" version="1.1" xmlns="http://www.w3.org/2000/svg" xmlns:xlink="http://www.w3.org/1999/xlink" style="background: #FFFFFF;">
    <!-- Generator: Sketch 46.2 (44496) - http://www.bohemiancoding.com/sketch -->
    <title>claritydesign</title>
    <desc>Created with Sketch.</desc>
    <defs>
        <linearGradient x1="-3.63144536%" y1="102.419323%" x2="140.785933%" y2="-47.1032014%" id="linearGradient-1">
            <stop stop-color="#3AA5F5" offset="0%"></stop>
            <stop stop-color="#BBF3FF" offset="100%"></stop>
        </linearGradient>
    </defs>
    <g id="内容填充" stroke="none" stroke-width="1" fill="none" fill-rule="evenodd">
        <g id="claritydesign">
            <g id="Teambition-的设计语言---Clarity-Design" transform="translate(45.000000, 29.000000)">
                <path d="M8.4,114.8 C13.2,114.8 15.6,111.6 16,108.6 L12.8,108.6 C12.2,110.4 10.6,111.8 8.4,111.8 C5.4,111.8 3.6,109.4 3.6,106.4 L3.6,104.8 C3.6,101.8 5.6,99.4 8.4,99.4 C10.6,99.4 12.2,100.6 12.6,102.4 L16,102.4 C15.6,99.4 13,96.4 8.4,96.4 C3.4,96.4 0,100 0,105 L0,106 C0,111.2 3.4,114.8 8.4,114.8 Z M23.6,111.6 L23.6,97 L20.2,97 L20.2,114.6 L32,114.6 L32,111.6 L23.6,111.6 Z M47.8,114.4 L51.2,114.4 L44,96.8 L44,96.8 L41.2,96.8 L41.2,96.8 L34,114.4 L37.4,114.4 L39,110.4 L46,110.4 L47.8,114.4 Z M40.2,107.4 L42.6,101.6 L45,107.4 L40.2,107.4 Z M64.2,114.4 L68,114.4 L64.4,107.4 C66.2,106.6 67.6,104.6 67.6,102.2 C67.6,98.6 65.4,96.6 62.4,96.6 L54,96.6 L54,114.2 L57.4,114.2 L57.4,107.8 L61,107.8 L64.2,114.4 Z M57.4,99.8 L61.4,99.8 C62.8,99.8 64,100.8 64,102.6 C64,104.2 62.6,105.4 61,105.4 L57.2,105.4 L57.2,99.8 L57.4,99.8 Z M71.2,114.4 L74.6,114.4 L74.6,96.8 L71.2,96.8 L71.2,114.4 Z M91.8,96.8 L77.4,96.8 L77.4,99.8 L82.8,99.8 L82.8,114.4 L86.2,114.4 L86.2,99.8 L91.6,99.8 L91.6,96.8 L91.8,96.8 Z M105.6,96.8 L101.4,104.4 L97.2,96.8 L93.4,96.8 L99.8,107.8 L99.8,114.6 L103.2,114.6 L103.2,107.8 L109.6,96.8 L105.6,96.8 Z M13.4,122.8 L6,122.8 L6,140.4 L13,140.4 C17.4,140.4 20.8,137 20.8,131.4 C21,126 17.8,122.8 13.4,122.8 Z M12.2,137.6 L9.4,137.6 L9.4,125.8 L12.6,125.8 C15.8,125.8 17.4,128 17.6,131.6 C17.6,135.2 15.8,137.6 12.2,137.6 Z M28.6,137.6 L28.6,133 L36.4,133 L36.4,130 L28.6,130 L28.6,125.8 L37.2,125.8 L37.2,122.8 L25.2,122.8 L25.2,140.4 L37.4,140.4 L37.4,137.4 L28.6,137.4 L28.6,137.6 Z M48.4,140.8 C52.6,140.8 55.4,138.6 55.4,135.2 C55.4,131.8 53.4,131 48.6,130.2 C47,130 45,129.6 45,128.2 C45,126.6 46.2,125.6 48.4,125.6 C50.4,125.6 51.8,126.8 51.8,128.6 L55.2,128.6 C55.2,124.8 52.8,122.6 48.6,122.6 C44.4,122.6 41.8,124.8 41.8,128.4 C41.8,131.2 43.8,132.4 47.4,133 C49.2,133.4 52.2,133.6 52.2,135.4 C52.2,137 50.8,138 48.6,138 C46.2,138 44.6,136.8 44.6,135 L41.2,135 C41.2,138.6 43.8,140.8 48.4,140.8 Z M60,140.4 L63.4,140.4 L63.4,122.8 L60,122.8 L60,140.4 Z M75.8,140.8 C80.8,140.8 83.4,137.2 83.4,133.8 L83.4,130.8 L75.8,130.8 L75.8,133.8 L80,133.8 C80,136.6 78,137.8 75.8,137.8 C72.8,137.8 71,135.4 71,132.4 L71,130.8 C71,127.6 73,125.4 75.8,125.4 C78,125.4 79.4,126.6 79.8,128.4 L83.2,128.4 C83,125.4 80.4,122.4 75.8,122.4 C70.8,122.4 67.4,125.8 67.4,131 L67.4,132 C67.6,137.2 70.8,140.8 75.8,140.8 Z M98.8,122.8 L98.8,134.8 L91.2,122.8 L87.8,122.8 L87.8,140.4 L91.2,140.4 L91.2,128.6 L98.8,140.4 L102.2,140.4 L102.2,122.8 L98.8,122.8 Z" id="text" fill="#000000" fill-rule="nonzero"></path>
                <path d="M56,71 L40.6,71 C38.4,71 36.6,69.2 36.6,67 C36.6,64.8 38.4,63 40.6,63 L56,63 C71.2,63 83.4,50.8 83.4,35.8 C83.4,20.8 71,8.6 56,8.6 L41.8,8.6 C31,8.6 22.2,17.2 22.2,28 C22.2,38.6 31,47.4 41.8,47.4 L56,47.4 C62.4,47.4 67.6,42.2 67.6,35.8 C67.6,29.4 62.4,24.2 56,24.2 L44,24.2 L44,35.8 C44,38 42.2,39.8 40,39.8 C37.8,39.8 36,38 36,35.8 L36,20.2 C36,18 37.8,16.2 40,16.2 L56,16.2 C67,16.2 75.8,25 75.8,35.8 C75.8,46.6 66.8,55.4 56,55.4 L41.8,55.4 C26.4,55.4 14,43 14,28 C14,12.8 26.4,0.6 41.8,0.6 L56,0.6 C75.6,0.6 91.6,16.4 91.6,35.8 C91.6,55.2 75.6,71 56,71" id="logo" fill="url(#linearGradient-1)" fill-rule="nonzero"></path>
                <path d="M40.2,41.8 L40.2,20 L57.2,20 C57.2,20 71,21.6 71,35.8 C71,50 57.2,51.8 57.2,51.8 C57.2,51.8 42.2,51.8 37.4,51.8 C30,51.8 17.4,41.2 17.4,29.4 C17.4,9 33.6,5.4 44.2,5.4 C49.4,5.4 55.6,5.4 60.6,5.4 C72.8,5.4 87.6,16 87.6,35.8 C87.6,59.4 65.4,66.8 60.8,66.8 C56.2,66.8 34.2,66.8 34.2,66.8" id="cover"></path>
                <path d="M100.2,120.4 L100.2,139.4 L89.6,122.4 L89.6,140.4 L85.8,128.8 L82.4,129.8 C82.4,129.8 80.8,124 75.6,124 C71.4,124 69.2,127 69.2,131.6 C69.2,136.2 72,139.4 74.8,139.4 C77.6,139.4 82,139.8 82,132.8 L73,132.8 L61.8,120.4 L61.8,140.4 L53.6,128.4 C53.6,128.4 53.8,124 48.6,124 C43.4,124 44,126.8 44,128.4 C44,129.6 45.8,131 48.6,131.6 C51.4,132.2 54.6,133.6 54.2,136.4 C53.8,139.2 48.6,139.2 48.6,139.2 C48.6,139.2 43,139.2 43,134.8 C43,130.6 37.6,124 37.6,124 L27,123.8 L27.4,131.4 L36.6,131.4 L27.4,130.8 L26.8,138.6 L38.4,138.8 L17.8,120.8 L7.8,120.6 L7.8,124.2 C7.8,124.2 19.6,120.8 19.6,132 C19.6,141.2 7.8,138.8 7.8,138.8 L8,118.8" id="t1"></path>
                <path d="M94.4,95.6 L100.8,106.4 L102,96.4 L107.2,96.4 L101,107.2 L101.2,114.6 L91.6,98 L77.4,97.8 L84.6,96.6 L84.6,115.4 L73,94.4 L73,114.6 L66.2,114.2 L61.8,106.4 C61.8,106.4 65.6,106.2 65.6,102.4 C65.6,97.8 61.8,98 61.8,98 L55.6,98 L55.6,114.2 L52.8,106 L68.2,106 L68.2,90.6 L42.8,96.2 L37.6,108.6 L47.4,108.8 L49.4,114.2 L36,114.2 L39.6,107.2 L47.2,107.2 L41.2,94.4 L21.8,95.4 L21.8,112.4 L32,112.4 L31.4,117.8 L17.6,114.6 L17.6,102.4 L14.2,102.4 C14.2,102.4 12.8,97.6 8.2,97.6 C3.6,97.6 1.6,102 1.6,105.2 C1.6,108.4 3.4,112.8 8.2,112.8 C13,112.8 14.2,110 14.2,108.4" id="t2"></path>
            </g>
        </g>
    </g>
</svg>
